public/icons/print.svg

<svg width="385" height="498" viewBox="0 0 385 498" fill="none" xmlns="http://www.w3.org/2000/svg">
<path d="M17.9995 139.849V18.3006L6.99951 15.8486V150.849L89.9995 150L89.7195 139.116L17.9995 139.849Z" fill="#F2F2F2"/>
<path d="M100 161H0V0H100V161ZM2 159H98V2H2V159Z" fill="#3F3D56"/>
<path d="M25.1969 10H9V12H25.1969V10Z" fill="#3F3D56"/>
<path d="M25.1969 15H9V17H25.1969V15Z" fill="#3F3D56"/>
<path d="M25.1969 20H9V22H25.1969V20Z" fill="#3F3D56"/>
<path d="M86.1968 106H17V108H86.1968V106Z" fill="#3F3D56"/>
<path d="M86.1968 117H17V119H86.1968V117Z" fill="#3F3D56"/>
<path d="M86.1968 128H17V130H86.1968V128Z" fill="#3F3D56"/>
<path d="M85 23C83.6155 23 82.2622 22.5895 81.111 21.8203C79.9599 21.0511 79.0627 19.9579 78.5329 18.6788C78.003 17.3997 77.8644 15.9922 78.1345 14.6344C78.4046 13.2765 79.0713 12.0292 80.0502 11.0503C81.0292 10.0713 82.2765 9.4046 83.6344 9.1345C84.9922 8.86441 86.3997 9.00304 87.6788 9.53285C88.9579 10.0627 90.0511 10.9599 90.8203 12.111C91.5895 13.2622 92 14.6155 92 16C91.9979 17.8559 91.2598 19.6351 89.9475 20.9474C88.6352 22.2598 86.8559 22.9979 85 23ZM85 11C84.0111 11 83.0444 11.2932 82.2222 11.8426C81.3999 12.3921 80.759 13.173 80.3806 14.0866C80.0022 15.0002 79.9032 16.0055 80.0961 16.9754C80.289 17.9454 80.7652 18.8363 81.4645 19.5355C82.1637 20.2348 83.0546 20.711 84.0245 20.9039C84.9945 21.0969 85.9998 20.9978 86.9134 20.6194C87.827 20.241 88.6079 19.6001 89.1573 18.7778C89.7067 17.9556 90 16.9889 90 16C89.9985 14.6744 89.4712 13.4035 88.5339 12.4661C87.5965 11.5288 86.3256 11.0015 85 11Z" fill="#3F3D56"/>
<path d="M87 83H16V37H87V83ZM18 81H85V39H18V81Z" fill="#3F3D56"/>
<path d="M17.54 37.1573L16.4646 38.8438L85.4648 82.8441L86.5402 81.1576L17.54 37.1573Z" fill="#3F3D56"/>
<path d="M85.4625 37.157L16.462 81.1562L17.5374 82.8427L86.5379 38.8435L85.4625 37.157Z" fill="#3F3D56"/>
<path d="M34.7607 191.931H76.0644C78.8831 175.636 78.8831 158.979 76.0644 142.684H34.7607C39.4139 158.77 39.4139 175.845 34.7607 191.931Z" fill="#E4E4E4"/>
<path d="M288.458 109.888C302.64 102.135 307.853 84.353 300.1 70.1708C292.347 55.9886 274.565 50.7764 260.383 58.5291C246.201 66.2818 240.989 84.0636 248.741 98.2459C256.494 112.428 274.276 117.64 288.458 109.888Z" fill="#FFB8B8"/>
<path d="M320.302 73.761C334.601 73.761 346.192 62.1694 346.192 47.8706C346.192 33.5717 334.601 21.9802 320.302 21.9802C306.003 21.9802 294.412 33.5717 294.412 47.8706C294.412 62.1694 306.003 73.761 320.302 73.761Z" fill="#2F2E41"/>
<path d="M342.634 69.3094C339.283 71.7314 335.4 73.3157 331.312 73.9297C327.223 74.5436 323.046 74.1694 319.132 72.8384C315.217 71.5074 311.678 69.2582 308.811 66.2791C305.944 63.3 303.832 59.6775 302.652 55.7148C303.099 59.266 304.277 62.686 306.112 65.7589C307.947 68.8319 310.399 71.491 313.313 73.5684C316.228 75.6458 319.542 77.0963 323.045 77.8285C326.548 78.5607 330.166 78.5585 333.668 77.8222C337.171 77.0858 340.483 75.6313 343.395 73.5505C346.307 71.4696 348.756 68.8076 350.587 65.7325C352.419 62.6574 353.592 59.236 354.035 55.6843C354.477 52.1326 354.178 48.5278 353.157 45.0974C353.737 49.7061 353.066 54.386 351.215 58.6461C349.363 62.9062 346.399 66.5894 342.634 69.3094Z" fill="#2F2E41"/>
<path d="M240.459 69.3381C244.979 61.2463 246.708 57.8662 252.536 52.9457C257.689 48.5941 264.028 47.3161 269.141 51.4394C275.19 48.8261 281.92 48.2335 288.332 49.7497C294.744 51.2659 300.496 54.8101 304.733 59.8556C308.971 64.9012 311.468 71.179 311.853 77.7566C312.238 84.3342 310.492 90.8607 306.872 96.3666C303.253 101.872 297.955 106.064 291.763 108.319C285.572 110.573 278.819 110.771 272.507 108.882C266.195 106.992 260.66 103.118 256.725 97.8326C252.791 92.5475 250.666 86.1342 250.666 79.5454C250.671 78.3883 250.741 77.2324 250.875 76.0831C246.431 75.459 244.903 69.9622 240.459 69.3381Z" fill="#2F2E41"/>
<path d="M203.548 483.707L190.163 479.819L198.789 426.338L218.545 432.077L203.548 483.707Z" fill="#FFB8B8"/>
<path d="M179.754 472.649L207.528 480.716L202.806 496.97L160.737 484.75L161.306 482.792C161.851 480.915 162.761 479.163 163.983 477.637C165.205 476.112 166.716 474.841 168.429 473.9C170.142 472.958 172.024 472.362 173.967 472.148C175.91 471.933 177.877 472.103 179.754 472.649Z" fill="#2F2E41"/>
<path d="M341.88 484.027L327.941 484.026L321.31 430.261L341.882 430.262L341.88 484.027Z" fill="#FFB8B8"/>
<path d="M315.945 480.043H344.867V496.969H301.058V494.93C301.058 492.975 301.444 491.039 302.192 489.233C302.94 487.427 304.036 485.786 305.419 484.403C306.801 483.021 308.442 481.924 310.248 481.176C312.055 480.428 313.99 480.043 315.945 480.043Z" fill="#2F2E41"/>
<path d="M309.083 296.868C308.019 295.578 307.251 294.071 306.833 292.453C306.415 290.835 306.357 289.144 306.663 287.501C306.969 285.858 307.631 284.302 308.604 282.942C309.576 281.583 310.835 280.453 312.291 279.632L305.053 239.653L324.468 247.95L328.364 284.644C329.58 287.181 329.823 290.077 329.047 292.782C328.271 295.487 326.53 297.813 324.153 299.32C321.776 300.827 318.929 301.409 316.152 300.957C313.374 300.505 310.859 299.05 309.083 296.868Z" fill="#FFB8B8"/>
<path d="M319.491 201.146L296.714 131.998C296.239 131.205 290.569 122.281 278.223 126.077C276.861 126.461 275.591 127.12 274.494 128.015C273.397 128.909 272.496 130.02 271.846 131.278C268.232 138.206 271.603 148.909 271.618 148.966L299.661 211.806L299.69 211.871L308.541 276.407L327.657 272.526L319.491 201.146Z" fill="#E4E4E4"/>
<path d="M168.096 456.955L202.38 351.827L242.13 260.968L241.558 216.901L288.729 205.901L294.223 224.369C325.992 245.332 315.526 285.657 314.78 288.36L362.649 465.02L310.454 470.819L275.419 303.555L243.107 371.52L220.261 473.185L168.096 456.955Z" fill="#2F2E41"/>
<path d="M238.157 179.909C228.778 161.931 235.559 155.085 245.813 144.731C250.003 140.641 253.936 136.294 257.586 131.716C273.583 111.15 292.149 121.25 292.335 121.355L292.439 121.414L297.027 128.294C312.143 143.508 289.219 185.312 287.479 188.425L288.628 218.318L239.879 222.96L238.157 179.909Z" fill="#E4E4E4"/>
<path d="M256.73 295.312C256.028 293.796 255.666 292.143 255.671 290.472C255.676 288.8 256.048 287.15 256.759 285.638C257.471 284.126 258.506 282.788 259.79 281.719C261.075 280.649 262.579 279.875 264.195 279.449L267.308 238.939L283.991 251.879L278.477 288.364C279.012 291.127 278.514 293.99 277.079 296.411C275.644 298.831 273.37 300.641 270.69 301.497C268.009 302.354 265.108 302.197 262.535 301.057C259.962 299.917 257.897 297.873 256.73 295.312Z" fill="#FFB8B8"/>
<path d="M260.263 276.32L268.138 210.727L256.913 142.852C256.887 142.376 256.329 131.12 261.859 125.019C262.893 123.866 264.154 122.939 265.562 122.294C266.97 121.65 268.496 121.301 270.045 121.272C284.07 120.657 287.424 132.342 287.456 132.46L292.024 205.378L281.719 277.512L260.263 276.32Z" fill="#E4E4E4"/>
</svg>

<svg xmlns="http://www.w3.org/2000/svg" fill="none" viewBox="0 0 385 498">
  <path fill="#F2F2F2" d="M18 139.849V18.301L7 15.849v135L90 150l-.28-10.884-71.72.733Z"/>
  <path fill="#3F3D56" d="M100 161H0V0h100v161Zm-98-2h96V2H2v157Z"/>
  <path fill="#3F3D56" d="M25.197 10H9v2h16.197v-2Zm0 5H9v2h16.197v-2Zm0 5H9v2h16.197v-2Zm61 86H17v2h69.197v-2Zm0 11H17v2h69.197v-2Zm0 11H17v2h69.197v-2ZM85 23a7 7 0 1 1 7-7 7.008 7.008 0 0 1-7 7Zm0-12a5 5 0 1 0 0 10 5 5 0 0 0 0-10Zm2 72H16V37h71v46Zm-69-2h67V39H18v42Z"/>
  <path fill="#3F3D56" d="m17.54 37.157-1.075 1.687 69 44 1.075-1.686-69-44Z"/>
  <path fill="#3F3D56" d="m85.463 37.157-69.001 44 1.075 1.686 69-44-1.075-1.686Z"/>
  <path fill="#E4E4E4" d="M34.76 191.931h41.304a144.46 144.46 0 0 0 0-49.247H34.761a88.612 88.612 0 0 1 0 49.247Z"/>
  <path fill="#FFB8B8" d="M288.458 109.888c14.182-7.753 19.395-25.535 11.642-39.717-7.753-14.182-25.535-19.395-39.717-11.642-14.182 7.753-19.394 25.535-11.642 39.717 7.753 14.182 25.535 19.394 39.717 11.642Z"/>
  <path fill="#2F2E41" d="M320.302 73.761c14.299 0 25.89-11.592 25.89-25.89 0-14.3-11.591-25.89-25.89-25.89-14.299 0-25.89 11.59-25.89 25.89 0 14.298 11.591 25.89 25.89 25.89Z"/>
  <path fill="#2F2E41" d="M342.634 69.31a25.896 25.896 0 0 1-33.823-3.03 25.891 25.891 0 0 1-6.159-10.565 25.9 25.9 0 0 0 10.661 17.853 25.9 25.9 0 0 0 20.355 4.254 25.893 25.893 0 0 0 19.489-32.725 25.888 25.888 0 0 1-10.523 24.212Z"/>
  <path fill="#2F2E41" d="M240.459 69.338c4.52-8.092 6.249-11.472 12.077-16.392 5.153-4.352 11.492-5.63 16.605-1.507a30.621 30.621 0 0 1 42.712 26.318 30.617 30.617 0 0 1-20.09 30.562 30.623 30.623 0 0 1-35.038-10.486 30.627 30.627 0 0 1-6.059-18.288c.005-1.157.075-2.313.209-3.462-4.444-.624-5.972-6.12-10.416-6.745Z"/>
  <path fill="#FFB8B8" d="m203.548 483.707-13.385-3.888 8.626-53.481 19.756 5.739-14.997 51.63Z"/>
  <path fill="#2F2E41" d="m179.754 472.649 27.774 8.067-4.722 16.254-42.069-12.22.569-1.958a14.891 14.891 0 0 1 7.123-8.892 14.874 14.874 0 0 1 11.325-1.251Z"/>
  <path fill="#FFB8B8" d="m341.88 484.027-13.939-.001-6.631-53.765 20.572.001-.002 53.765Z"/>
  <path fill="#2F2E41" d="M315.945 480.043h28.922v16.926h-43.809v-2.039a14.89 14.89 0 0 1 14.887-14.887Z"/>
  <path fill="#FFB8B8" d="M309.083 296.868a11.433 11.433 0 0 1 3.208-17.236l-7.238-39.979 19.415 8.297 3.896 36.694a11.496 11.496 0 0 1-19.281 12.224Z"/>
  <path fill="#E4E4E4" d="m319.491 201.146-22.777-69.148c-.475-.793-6.145-9.717-18.491-5.921a10.335 10.335 0 0 0-6.377 5.201c-3.614 6.928-.243 17.631-.228 17.688l28.043 62.84.029.065 8.851 64.536 19.116-3.881-8.166-71.38Z"/>
  <path fill="#2F2E41" d="m168.096 456.955 34.284-105.128 39.75-90.859-.572-44.067 47.171-11 5.494 18.468c31.769 20.963 21.303 61.288 20.557 63.991l47.869 176.66-52.195 5.799-35.035-167.264-32.312 67.965-22.846 101.665-52.165-16.23Z"/>
  <path fill="#E4E4E4" d="M238.157 179.909c-9.379-17.978-2.598-24.824 7.656-35.178 4.19-4.09 8.123-8.437 11.773-13.015 15.997-20.566 34.563-10.466 34.749-10.361l.104.059 4.588 6.88c15.116 15.214-7.808 57.018-9.548 60.131l1.149 29.893-48.749 4.642-1.722-43.051Z"/>
  <path fill="#FFB8B8" d="M256.73 295.312a11.44 11.44 0 0 1 .029-9.674 11.445 11.445 0 0 1 7.436-6.189l3.113-40.51 16.683 12.94-5.514 36.485a11.496 11.496 0 0 1-21.747 6.948Z"/>
  <path fill="#E4E4E4" d="m260.263 276.32 7.875-65.593-11.225-67.875c-.026-.476-.584-11.732 4.946-17.833a11.288 11.288 0 0 1 8.186-3.747c14.025-.615 17.379 11.07 17.411 11.188l4.568 72.918-10.305 72.134-21.456-1.192Z"/>
</svg>
